dot_local/share/icons/Tela-dracula/scalable/apps/org.xfce.panel.directorymenu.svg

<svg width="64" height="64" version="1.1" viewBox="0 0 16.933 16.933" xmlns="http://www.w3.org/2000/svg">
 <defs>
  <linearGradient id="linearGradient892-3" x1="-197.72" x2="-197.72" y1="263.86" y2="273.76" gradientTransform="matrix(.18709 -.18709 .18709 .18709 1.1192 -74.45)" gradientUnits="userSpaceOnUse">
   <stop offset="0"/>
   <stop stop-opacity="0" offset="1"/>
  </linearGradient>
 </defs>
 <path class="ColorScheme-Highlight" d="m7.1442 2.3771-3.7041 0.00103c-0.2936 0-0.39491 0.26797-0.52969 0.52863v0.00362h-0.26458c-0.58631 0-1.0583 0.47201-1.0583 1.0583v1.3229c-0.58631 0-1.0583 0.47201-1.0583 1.0583v7.4082c0 0.58631 0.47201 1.0583 1.0583 1.0583h13.758c0.58631 0 1.0583-0.47201 1.0583-1.0583v-8.4666c0-0.58631-0.47201-1.0583-1.0583-1.0583v-0.26458c0-0.58631-0.47201-1.0583-1.0583-1.0583h-4.4606c-0.012512-8.466e-4 -0.024471-0.00367-0.037205-0.00362h-2.1156c-0.155-0.249-0.23566-0.52969-0.52969-0.52969z" color="#44475a" fill="currentColor" stroke-width=".26458"/>
 <path id="shadow" d="m7.1441 2.3771-3.7041 0.00103c-0.2936 0-0.39492 0.26798-0.52967 0.52864v0.00362h-0.26458c-0.58631 0-1.0583 0.472-1.0583 1.0583v1.3229h6.6145l0.79373-1.0583h6.3499v-0.26458c0-0.58631-0.472-1.0583-1.0583-1.0583l-6.6134-0.00362c-0.155-0.249-0.23566-0.52967-0.52967-0.52967z" fill="#bd93f9"/>
 <path d="m2.9146 3.6999c-0.29543 0-0.53329 0.23787-0.53329 0.53329v1.0583h5.8208l0.79374-1.0583h5.5562c0-0.29543-0.23787-0.53329-0.53329-0.53329h-11.104z" fill="#ffffff" stroke-width=".26458"/>
 <rect x="3.704" y="2.64" width="3.175" height=".529" rx=".2645" ry=".2645" opacity=".25"/>
 <path d="m16.404 10.583-4.2333 4.2333h3.175c0.58631 0 1.0583-0.47201 1.0583-1.0583z" fill="url(#linearGradient892-3)" opacity=".2" stroke-width=".26458"/>
 <rect x="10.318" y="4.762" width="4.2333" height=".52916" ry=".26508" opacity=".25"/>
 <path transform="scale(.26458)" d="m21 23.004c-1.1077 0-2 0.89233-2 2v3.002h26v-3.002c0-1.1077-0.89233-2-2-2h-22zm1.002 1.9961a1.0016 1.0016 0 0 1 1 1.002 1.0016 1.0016 0 0 1-1 1.002 1.0016 1.0016 0 0 1-1.002-1.002 1.0016 1.0016 0 0 1 1.002-1.002zm-3.002 4.002v5.002h26v-5.002h-26zm3.002 2a1.0016 1.0016 0 0 1 1 1.002 1.0016 1.0016 0 0 1-1 1.002 1.0016 1.0016 0 0 1-1.002-1.002 1.0016 1.0016 0 0 1 1.002-1.002zm-3.002 4.002v5.002h26v-5.002h-26zm3.002 1.9961a1.0016 1.0016 0 0 1 1 1.002 1.0016 1.0016 0 0 1-1 1.002 1.0016 1.0016 0 0 1-1.002-1.002 1.0016 1.0016 0 0 1 1.002-1.002zm-3.002 4.002v5.002h26v-5.002h-26zm3.002 2a1.0016 1.0016 0 0 1 1 1.002 1.0016 1.0016 0 0 1-1 1.002 1.0016 1.0016 0 0 1-1.002-1.002 1.0016 1.0016 0 0 1 1.002-1.002zm-3.002 4.0039v4.002c0 1.1077 0.89233 2 2 2h22c1.1077 0 2-0.89233 2-2v-4.002h-26zm3.002 1.9941a1.0016 1.0016 0 0 1 1 1.002 1.0016 1.0016 0 0 1-1 1.002 1.0016 1.0016 0 0 1-1.002-1.002 1.0016 1.0016 0 0 1 1.002-1.002z" fill="#000000" opacity=".15" style="paint-order:markers stroke fill"/>
</svg>

<svg xmlns="http://www.w3.org/2000/svg" width="64" height="64" viewBox="0 0 16.933 16.933"><defs><linearGradient id="a" x1="-197.72" x2="-197.72" y1="263.86" y2="273.76" gradientTransform="matrix(.18709 -.18709 .18709 .18709 1.12 -74.45)" gradientUnits="userSpaceOnUse"><stop offset="0"/><stop offset="1" stop-opacity="0"/></linearGradient></defs><path fill="currentColor" d="m7.144 2.377-3.704.001c-.294 0-.395.268-.53.529v.003h-.264c-.586 0-1.058.472-1.058 1.059v1.323C1 5.292.529 5.764.529 6.35v7.408c0 .586.472 1.058 1.059 1.058h13.758c.586 0 1.058-.472 1.058-1.058V5.291c0-.586-.472-1.058-1.058-1.058V3.97c0-.587-.472-1.059-1.059-1.059h-4.46c-.013 0-.025-.003-.038-.003H7.674c-.155-.25-.236-.53-.53-.53z" class="ColorScheme-Highlight" color="#44475a"/><path d="m7.144 2.377-3.704.001c-.294 0-.395.268-.53.529v.003h-.264c-.587 0-1.059.472-1.059 1.059v1.323h6.615l.794-1.059h6.35V3.97c0-.587-.472-1.059-1.059-1.059l-6.613-.003c-.155-.25-.236-.53-.53-.53z" opacity=".2"/><path fill="#fff" d="M2.915 3.7a.532.532 0 0 0-.534.533v1.058h5.821l.794-1.058h5.556a.532.532 0 0 0-.533-.533H2.915z"/><rect width="3.175" height=".529" x="3.704" y="2.64" opacity=".25" rx=".265" ry=".265"/><path fill="url(#a)" d="m16.404 10.583-4.233 4.233h3.175c.586 0 1.058-.472 1.058-1.058z" opacity=".2"/><rect width="4.233" height=".529" x="10.318" y="4.762" opacity=".25" ry=".265"/><path d="M21 23.004c-1.108 0-2 .892-2 2v3.002h26v-3.002c0-1.108-.892-2-2-2H21zM22.002 25a1.002 1.002 0 0 1 1 1.002 1.002 1.002 0 0 1-1 1.002A1.002 1.002 0 0 1 21 26.002 1.002 1.002 0 0 1 22.002 25zM19 29.002v5.002h26v-5.002H19zm3.002 2a1.002 1.002 0 0 1 1 1.002 1.002 1.002 0 0 1-1 1.002A1.002 1.002 0 0 1 21 32.004a1.002 1.002 0 0 1 1.002-1.002zM19 35.004v5.002h26v-5.002H19zM22.002 37a1.002 1.002 0 0 1 1 1.002 1.002 1.002 0 0 1-1 1.002A1.002 1.002 0 0 1 21 38.002 1.002 1.002 0 0 1 22.002 37zM19 41.002v5.002h26v-5.002H19zm3.002 2a1.002 1.002 0 0 1 1 1.002 1.002 1.002 0 0 1-1 1.002A1.002 1.002 0 0 1 21 44.004a1.002 1.002 0 0 1 1.002-1.002zM19 47.006v4.002c0 1.108.892 2 2 2h22c1.108 0 2-.892 2-2v-4.002H19zM22.002 49a1.002 1.002 0 0 1 1 1.002 1.002 1.002 0 0 1-1 1.002A1.002 1.002 0 0 1 21 50.002 1.002 1.002 0 0 1 22.002 49z" opacity=".15" style="paint-order:markers stroke fill" transform="scale(.26458)"/></svg>
